public/images/icons/flying/crypto/1inch.svg

<?xml version="1.0" encoding="utf-8"?>
<!-- Generator: Adobe Illustrator 24.0.0, SVG Export Plug-In . SVG Version: 6.00 Build 0)  -->
<svg version="1.1" id="logo" xmlns="http://www.w3.org/2000/svg" xmlns:xlink="http://www.w3.org/1999/xlink" x="0px" y="0px"
	 viewBox="0 0 706.8 665.2" style="enable-background:new 0 0 706.8 665.2;" xml:space="preserve">
<style type="text/css">
	.st0{fill:#FFFFFF;}
	.st1{fill:#94A6C3;}
	.st2{fill:#1B314F;}
	.st3{fill:#FFD923;}
	.st4{fill:#D82122;}
</style>
<path class="st0" d="M168.2,366.5L186.9,226L24.7,113.4l148.2,50.2l35-53.7l127.8-79.3l281.7,155.2l14.6,236.8L506.5,597l-99.2,15.2
	l51.3-93.9v-90.4l-37.3-70.6l-37.9-25.1l-58.3,60.1v63.6l-45.5,42.6l-57.8,7L196.2,520l-42-13.4l-17.5-63l31.5-44.3V366.5z"/>
<path class="st1" d="M427.2,112.2c-30.9-6.4-64.7-4.7-64.7-4.7s-11.1,51.3-79.9,64.8C283.1,172.3,373.5,203.2,427.2,112.2z"/>
<path class="st1" d="M455.2,577.7c37.3-29.2,65.3-69.4,78.2-114.9c0.6-1.7,5.8-4.7,9.3-7c5.8-3.5,11.7-6.4,12.8-11.1
	c2.3-13.4,3.5-27.4,3.5-41.4c0-5.2-5.3-10.5-10.5-15.7c-4.1-3.5-8.2-7.6-8.2-10.5c-5.8-53.1-30.3-102.7-69.4-138.8l-4.1,4.1
	c37.9,35.6,62.4,84,67.7,135.3c0.6,4.7,5.2,9.3,9.9,14c4.1,3.5,8.8,8.8,8.8,11.1c0,13.4-1.2,26.8-3.5,40.2c-0.6,2.3-5.8,4.7-9.9,7
	c-5.8,2.9-11.1,5.8-12.2,10.5c-14,49.6-46.1,92.8-88.7,120.8c7.6-16.3,31.5-69.4,44.3-96.3l-2.3-86.3l-74.1-71.7l-42,5.8l-46.1,74.7
	c0,0,21.6,27.4-8.8,59.5c-29.7,31.5-53.1,38.5-53.1,38.5l-21.6-11.7c6.4-8.2,19.3-20.4,29.2-28.6c16.9-14,33.8-15.2,33.8-30.3
	C298.9,403.3,265,412,265,412l-12.3,11.7l-5.2,43.2L221.9,499l-2.9-0.6l-42-9.3c0,0,25.7-13.4,29.8-28.6c4.1-14.6-8.2-63-8.8-65.9
	c0.6,0.6,12.3,10.5,17.5,26.8c9.3-25.7,21.6-50.2,25.1-52.5c3.5-2.3,50.7-27.4,50.7-27.4l-15.7,41.4l11.7-6.4l28-68.8
	c0,0,27.4-13.4,47.8-13.4c36.7-0.6,91-45.5,66.5-126c7,2.9,128.3,63.6,149.3,182.6C594.6,442.4,542.7,528.1,455.2,577.7z"/>
<path class="st2" d="M316.4,125c13.4-15.8,8.2-39.1,8.2-39.1l-39.1,57.8C284.9,143.7,299.4,144.3,316.4,125z"/>
<path class="st2" d="M185.1,440.6l4.7-23.3c0,0-19.3,33.8-21,38.5c-1.8,5.3,1.2,14.6,8.7,14c7.6-0.6,16.9-11.7,16.9-19.8
	C194.4,439.5,185.1,440.6,185.1,440.6z"/>
<path class="st2" d="M531.6,69.6c0,0,29.2,1.2,59.5,4.7c-68.3-53.7-133-69.4-185.5-69.4c-72.3,0-121.3,29.8-124.3,31.5l22.8-36.2
	c0,0-91-8.8-123.1,87.5c-8.2-20.4-15.7-50.2-15.7-50.2S118,79,140.2,147.8C85.9,128,8.4,100.5,5.4,100c-4.1-0.6-5.3,1.2-5.3,1.2
	s-1.2,1.7,2.3,4.7C8.9,111,131.4,201.5,158.3,219c-5.8,21-5.8,30.9,0,40.8c8.2,13.4,8.7,20.4,7.6,30.3c-1.2,9.9-11.7,95.7-14,106.2
	c-2.3,10.5-26.8,47.8-25.7,58.9c1.2,11.1,16.3,58.3,29.8,63.6c9.9,3.5,34.4,11.1,50.7,11.1c5.8,0,11.1-1.2,13.4-3.5
	c9.9-8.7,12.8-10.5,19.8-10.5c0.6,0,1.2,0,1.7,0c2.9,0,6.4,0.6,10.5,0.6c9.3,0,21.6-1.8,30.3-9.9c12.8-12.8,35-30.3,42-38.5
	c8.8-11.1,13.4-26.2,11.1-41.4c-1.8-14,5.8-26.3,14.6-38.5c11.1-14.6,31.5-40.8,31.5-40.8C421.9,377.6,447,423.7,447,475
	c0,91-79.3,164.5-177.3,164.5c-15.2,0-29.7-1.7-44.3-5.2c44.9,15.7,82.8,21,113.8,21c65.9,0,100.9-23.9,100.9-23.9
	s-12.2,15.8-32.1,33.8c0.6,0,0.6,0,0.6,0c109.1-15.2,162.2-105,162.2-105s-4.1,29.2-9.3,49C706.6,500.1,682.1,363.6,681.5,359
	c1.2,1.7,15.8,19.2,23.3,28.6C728.2,147.2,531.6,69.6,531.6,69.6z M308.2,453.5c-2.3,2.9-12.2,11.7-19.2,18.1
	c-7,6.4-14.6,12.8-20.4,18.7c-2.3,2.3-7,3.5-14,3.5c-2.3,0-4.7,0-6.4,0c-1.2,0-2.3,0-3.5,0s-1.8,0-2.3,0c-1.8,0-3.5,0-5.3,0
	c8.8-11.7,34.4-38.5,43.2-44.3c10.5-7,15.8-14,9.3-26.2c-6.4-12.3-23.3-9.3-23.3-9.3s9.9-4.1,18.7-4.1c-11.1-2.9-25.1,0-31.5,6.4
	c-7,6.4-5.8,29.2-8.7,43.7c-2.9,15.2-12.8,22.8-28,36.8c-8.2,7.6-14,9.9-18.7,9.9c-9.9-1.7-21.6-4.7-29.8-7.6
	c-5.8-7.6-14.6-32.7-16.9-43.2c1.7-5.8,8.7-18.1,12.2-25.1c7-13.4,11.1-21,12.3-28c2.3-9.9,9.9-71.2,12.8-96.8
	c7.6,9.9,18.1,26.3,15.7,36.8c16.9-23.9,4.7-47.3-1.2-56.6c-5.2-9.3-12.2-28-6.4-47.8c5.8-19.8,26.8-74.7,26.8-74.7s7,12.3,16.9,9.9
	c9.9-2.3,89.8-122.5,89.8-122.5s21.6,47.2-1.2,81.7c-23.3,34.4-46.1,40.8-46.1,40.8s32.1,5.8,61.8-15.8
	c12.2,28.6,23.9,58.3,24.5,62.4c-1.8,4.1-25.1,60.1-27.4,63.6c-1.2,1.2-9.3,3.5-15.2,4.7c-9.9,2.9-15.7,4.7-18.1,6.4
	c-4.1,3.5-22.8,54.8-31.5,79.9c-10.5,2.9-21,8.8-28.6,20.4c4.1-2.9,16.9-4.7,26.3-5.8c8.2-0.6,33.2,12.8,39.7,37.9
	c0,0.6,0,0.6,0,1.2C315.8,437.7,312.9,446.5,308.2,453.5z M253.4,460.5c5.3-7.6,4.7-20.4,5.3-24.5c0.6-4.1,1.7-11.7,6.4-12.8
	c4.7-1.2,15.8,0.6,15.8,8.7c0,7.6-8.2,9.3-14,14.6C262.7,450.5,254.5,459.3,253.4,460.5z M486.1,349c5.8-29.7,6.4-55.4,4.7-76.4
	c22.7,30.3,36.7,67.1,40.8,105c0.6,4.7,5.2,9.3,9.9,14c4.1,3.5,8.8,8.2,8.8,11.1c0,13.4-1.2,26.8-3.5,40.3c-0.6,1.7-5.8,4.7-9.9,7
	c-5.8,2.9-11.1,5.8-12.2,10.5c-12.8,44.9-40.3,84.6-77,112.6C501.9,516.5,528.1,423.1,486.1,349z M449.4,578.3
	c37.9-29.2,67.1-70,79.9-116.1c0.6-1.7,5.8-4.7,9.3-7c5.8-2.9,11.7-6.4,12.8-11.1c2.3-13.4,3.5-27.4,3.5-41.4
	c0-5.2-5.3-10.5-10.5-15.7c-2.9-3.5-7.6-7.6-7.6-10.5c-4.7-42.6-21.6-82.8-47.8-116.1c-11.7-70-58.3-91.6-59.5-92.2
	c1.2,1.8,31.5,45.5,10.5,96.8c-21.6,51.9-77,43.8-81.7,44.3c-4.7,0-22.7,23.3-45.5,66.5c-2.9-1.2-15.2-4.1-29.2-1.7
	c10.5-29.2,26.3-70.6,29.2-74.1c1.2-1.2,9.9-3.5,15.8-5.2c11.1-2.9,16.3-4.7,18.1-7c1.2-1.8,7-15.2,12.8-29.2
	c5.3,0,18.7-1.2,19.8-1.8c1.2-1.2,12.3-29.7,12.3-33.2c0-2.9-22.8-59.5-31.5-81.1c4.1-4.7,8.2-10.5,12.2-16.9
	C491.9,138.5,585.3,240,585.3,363C585.3,457.5,529.9,539.8,449.4,578.3z"/>
<path class="st2" d="M294.2,263.3c11.1-12.8,5.3-36.7-15.2-40.8c5.3-12.2,12.8-36.7,12.8-36.7s-59.5,93.3-64.7,95.1
	c-5.3,1.8-10.5-18.7-10.5-18.7c-11.1,42.6,18.7,48.4,22.2,35C255.1,293,283.1,275.5,294.2,263.3z"/>
<path class="st3" d="M243.4,286l30.3-51.9c0,0,17.5,8.8,8.7,22.8C271.4,273.2,243.4,286,243.4,286z"/>
<path class="st4" d="M618.5,526.4c-8.8,11.7-18.7,23.9-30.3,35.6c75.2-144.7,3.5-277.1,0.6-282.3c5.3,5.3,10.5,11.1,15.2,16.3
	C661.7,360.1,668.7,456.4,618.5,526.4z"/>
<path class="st4" d="M688.5,340.3c-26.3-70.6-63.6-130.7-145.8-184.9c-79.3-52.5-164.5-48.4-169.2-47.8c-0.6,0-1.2,0-1.2,0
	c2.9-1.2,5.8-1.8,8.7-2.3c18.1-5.8,41.4-10.5,64.8-13.4C507.7,83,570.1,104,612.7,149c0.6,0.6,0.6,0.6,1.2,1.2
	C662.3,201.5,687.4,265.6,688.5,340.3z"/>
<path class="st4" d="M524,51.5c-86.9-16.3-142.9-8.2-183.2,7c-1.2-4.7-5.3-14-8.8-21.6C319.9,51.5,307,69,298.9,80.1
	c-22.2,15.2-31.5,29.8-31.5,29.8c12.8-43.8,50.2-76.4,95.7-84.6c12.8-2.3,26.8-3.5,42-3.5C445.3,22.4,485.5,32.3,524,51.5z"/>
<path class="st4" d="M202.6,163.5c-68.2-2.3-45.5-81.7-44.3-86.3C158.3,77.8,162.9,139.6,202.6,163.5z"/>
<path class="st4" d="M269.7,20.6c-52.5,31.5-42,106.7-42,106.7C177.5,51,265.6,22.4,269.7,20.6z"/>
<path class="st0" d="M183.4,184.5c3.5,2.9,7,8.2,2.9,15.8c-2.3,4.1-5.8,3.5-11.1,1.2c-7-3.5-49-28-86.9-53.1
	c43.2,15.2,86.9,31.5,93.9,35C182.2,183.4,182.8,184,183.4,184.5z"/>
</svg>

<svg width="707" height="666" viewBox="0 0 707 666" fill="none" xmlns="http://www.w3.org/2000/svg">
<g clip-path="url(#clip0_1_3)">
<path d="M168.2 366.5L186.9 226L24.7 113.4L172.9 163.6L207.9 109.9L335.7 30.6001L617.4 185.8L632 422.6L506.5 597L407.3 612.2L458.6 518.3V427.9L421.3 357.3L383.4 332.2L325.1 392.3V455.9L279.6 498.5L221.8 505.5L196.2 520L154.2 506.6L136.7 443.6L168.2 399.3V366.5Z" fill="white"/>
<path d="M427.2 112.2C396.3 105.8 362.5 107.5 362.5 107.5C362.5 107.5 351.4 158.8 282.6 172.3C283.1 172.3 373.5 203.2 427.2 112.2Z" fill="#94A6C3"/>
<path d="M455.2 577.7C492.5 548.5 520.5 508.3 533.4 462.8C534 461.1 539.2 458.1 542.7 455.8C548.5 452.3 554.4 449.4 555.5 444.7C557.8 431.3 559 417.3 559 403.3C559 398.1 553.7 392.8 548.5 387.6C544.4 384.1 540.3 380 540.3 377.1C534.5 324 510 274.4 470.9 238.3L466.8 242.4C504.7 278 529.2 326.4 534.5 377.7C535.1 382.4 539.7 387 544.4 391.7C548.5 395.2 553.2 400.5 553.2 402.8C553.2 416.2 552 429.6 549.7 443C549.1 445.3 543.9 447.7 539.8 450C534 452.9 528.7 455.8 527.6 460.5C513.6 510.1 481.5 553.3 438.9 581.3C446.5 565 470.4 511.9 483.2 485L480.9 398.7L406.8 327L364.8 332.8L318.7 407.5C318.7 407.5 340.3 434.9 309.9 467C280.2 498.5 256.8 505.5 256.8 505.5L235.2 493.8C241.6 485.6 254.5 473.4 264.4 465.2C281.3 451.2 298.2 450 298.2 434.9C298.9 403.3 265 412 265 412L252.7 423.7L247.5 466.9L221.9 499L219 498.4L177 489.1C177 489.1 202.7 475.7 206.8 460.5C210.9 445.9 198.6 397.5 198 394.6C198.6 395.2 210.3 405.1 215.5 421.4C224.8 395.7 237.1 371.2 240.6 368.9C244.1 366.6 291.3 341.5 291.3 341.5L275.6 382.9L287.3 376.5L315.3 307.7C315.3 307.7 342.7 294.3 363.1 294.3C399.8 293.7 454.1 248.8 429.6 168.3C436.6 171.2 557.9 231.9 578.9 350.9C594.6 442.4 542.7 528.1 455.2 577.7Z" fill="#94A6C3"/>
<path d="M316.4 125C329.8 109.2 324.6 85.8999 324.6 85.8999L285.5 143.7C284.9 143.7 299.4 144.3 316.4 125Z" fill="#1B314F"/>
<path d="M185.1 440.6L189.8 417.3C189.8 417.3 170.5 451.1 168.8 455.8C167 461.1 170 470.4 177.5 469.8C185.1 469.2 194.4 458.1 194.4 450C194.4 439.5 185.1 440.6 185.1 440.6Z" fill="#1B314F"/>
<path d="M531.6 69.5999C531.6 69.5999 560.8 70.7999 591.1 74.2999C522.8 20.5999 458.1 4.89986 405.6 4.89986C333.3 4.89986 284.3 34.6999 281.3 36.3999L304.1 0.199863C304.1 0.199863 213.1 -8.60014 181 87.6999C172.8 67.2999 165.3 37.4999 165.3 37.4999C165.3 37.4999 118 78.9999 140.2 147.8C85.8999 128 8.39993 100.5 5.39993 99.9999C1.29993 99.3999 0.0999308 101.2 0.0999308 101.2C0.0999308 101.2 -1.10007 102.9 2.39993 105.9C8.89993 111 131.4 201.5 158.3 219C152.5 240 152.5 249.9 158.3 259.8C166.5 273.2 167 280.2 165.9 290.1C164.7 300 154.2 385.8 151.9 396.3C149.6 406.8 125.1 444.1 126.2 455.2C127.4 466.3 142.5 513.5 156 518.8C165.9 522.3 190.4 529.9 206.7 529.9C212.5 529.9 217.8 528.7 220.1 526.4C230 517.7 232.9 515.9 239.9 515.9C240.5 515.9 241.1 515.9 241.6 515.9C244.5 515.9 248 516.5 252.1 516.5C261.4 516.5 273.7 514.7 282.4 506.6C295.2 493.8 317.4 476.3 324.4 468.1C333.2 457 337.8 441.9 335.5 426.7C333.7 412.7 341.3 400.4 350.1 388.2C361.2 373.6 381.6 347.4 381.6 347.4C421.9 377.6 447 423.7 447 475C447 566 367.7 639.5 269.7 639.5C254.5 639.5 240 637.8 225.4 634.3C270.3 650 308.2 655.3 339.2 655.3C405.1 655.3 440.1 631.4 440.1 631.4C440.1 631.4 427.9 647.2 408 665.2C408.6 665.2 408.6 665.2 408.6 665.2C517.7 650 570.8 560.2 570.8 560.2C570.8 560.2 566.7 589.4 561.5 609.2C706.6 500.1 682.1 363.6 681.5 359C682.7 360.7 697.3 378.2 704.8 387.6C728.2 147.2 531.6 69.5999 531.6 69.5999ZM308.2 453.5C305.9 456.4 296 465.2 289 471.6C282 478 274.4 484.4 268.6 490.3C266.3 492.6 261.6 493.8 254.6 493.8C252.3 493.8 249.9 493.8 248.2 493.8C247 493.8 245.9 493.8 244.7 493.8C243.5 493.8 242.9 493.8 242.4 493.8C240.6 493.8 238.9 493.8 237.1 493.8C245.9 482.1 271.5 455.3 280.3 449.5C290.8 442.5 296.1 435.5 289.6 423.3C283.2 411 266.3 414 266.3 414C266.3 414 276.2 409.9 285 409.9C273.9 407 259.9 409.9 253.5 416.3C246.5 422.7 247.7 445.5 244.8 460C241.9 475.2 232 482.8 216.8 496.8C208.6 504.4 202.8 506.7 198.1 506.7C188.2 505 176.5 502 168.3 499.1C162.5 491.5 153.7 466.4 151.4 455.9C153.1 450.1 160.1 437.8 163.6 430.8C170.6 417.4 174.7 409.8 175.9 402.8C178.2 392.9 185.8 331.6 188.7 306C196.3 315.9 206.8 332.3 204.4 342.8C221.3 318.9 209.1 295.5 203.2 286.2C198 276.9 191 258.2 196.8 238.4C202.6 218.6 223.6 163.7 223.6 163.7C223.6 163.7 230.6 176 240.5 173.6C250.4 171.3 330.3 51.0999 330.3 51.0999C330.3 51.0999 351.9 98.2999 329.1 132.8C305.8 167.2 283 173.6 283 173.6C283 173.6 315.1 179.4 344.8 157.8C357 186.4 368.7 216.1 369.3 220.2C367.5 224.3 344.2 280.3 341.9 283.8C340.7 285 332.6 287.3 326.7 288.5C316.8 291.4 311 293.2 308.6 294.9C304.5 298.4 285.8 349.7 277.1 374.8C266.6 377.7 256.1 383.6 248.5 395.2C252.6 392.3 265.4 390.5 274.8 389.4C283 388.8 308 402.2 314.5 427.3C314.5 427.9 314.5 427.9 314.5 428.5C315.8 437.7 312.9 446.5 308.2 453.5ZM253.4 460.5C258.7 452.9 258.1 440.1 258.7 436C259.3 431.9 260.4 424.3 265.1 423.2C269.8 422 280.9 423.8 280.9 431.9C280.9 439.5 272.7 441.2 266.9 446.5C262.7 450.5 254.5 459.3 253.4 460.5ZM486.1 349C491.9 319.3 492.5 293.6 490.8 272.6C513.5 302.9 527.5 339.7 531.6 377.6C532.2 382.3 536.8 386.9 541.5 391.6C545.6 395.1 550.3 399.8 550.3 402.7C550.3 416.1 549.1 429.5 546.8 443C546.2 444.7 541 447.7 536.9 450C531.1 452.9 525.8 455.8 524.7 460.5C511.9 505.4 484.4 545.1 447.7 573.1C501.9 516.5 528.1 423.1 486.1 349ZM449.4 578.3C487.3 549.1 516.5 508.3 529.3 462.2C529.9 460.5 535.1 457.5 538.6 455.2C544.4 452.3 550.3 448.8 551.4 444.1C553.7 430.7 554.9 416.7 554.9 402.7C554.9 397.5 549.6 392.2 544.4 387C541.5 383.5 536.8 379.4 536.8 376.5C532.1 333.9 515.2 293.7 489 260.4C477.3 190.4 430.7 168.8 429.5 168.2C430.7 170 461 213.7 440 265C418.4 316.9 363 308.8 358.3 309.3C353.6 309.3 335.6 332.6 312.8 375.8C309.9 374.6 297.6 371.7 283.6 374.1C294.1 344.9 309.9 303.5 312.8 300C314 298.8 322.7 296.5 328.6 294.8C339.7 291.9 344.9 290.1 346.7 287.8C347.9 286 353.7 272.6 359.5 258.6C364.8 258.6 378.2 257.4 379.3 256.8C380.5 255.6 391.6 227.1 391.6 223.6C391.6 220.7 368.8 164.1 360.1 142.5C364.2 137.8 368.3 132 372.3 125.6C491.9 138.5 585.3 240 585.3 363C585.3 457.5 529.9 539.8 449.4 578.3Z" fill="#1B314F"/>
<path d="M294.2 263.3C305.3 250.5 299.5 226.6 279 222.5C284.3 210.3 291.8 185.8 291.8 185.8C291.8 185.8 232.3 279.1 227.1 280.9C221.8 282.7 216.6 262.2 216.6 262.2C205.5 304.8 235.3 310.6 238.8 297.2C255.1 293 283.1 275.5 294.2 263.3Z" fill="#1B314F"/>
<path d="M243.4 286L273.7 234.1C273.7 234.1 291.2 242.9 282.4 256.9C271.4 273.2 243.4 286 243.4 286Z" fill="#FFD923"/>
<path d="M618.5 526.4C609.7 538.1 599.8 550.3 588.2 562C663.4 417.3 591.7 284.9 588.8 279.7C594.1 285 599.3 290.8 604 296C661.7 360.1 668.7 456.4 618.5 526.4Z" fill="#D82122"/>
<path d="M688.5 340.3C662.2 269.7 624.9 209.6 542.7 155.4C463.4 102.9 378.2 107 373.5 107.6C372.9 107.6 372.3 107.6 372.3 107.6C375.2 106.4 378.1 105.8 381 105.3C399.1 99.4998 422.4 94.7998 445.8 91.8998C507.7 82.9998 570.1 104 612.7 149C613.3 149.6 613.3 149.6 613.9 150.2C662.3 201.5 687.4 265.6 688.5 340.3Z" fill="#D82122"/>
<path d="M524 51.4998C437.1 35.1998 381.1 43.2998 340.8 58.4998C339.6 53.7998 335.5 44.4998 332 36.8998C319.9 51.4998 307 68.9998 298.9 80.0998C276.7 95.2998 267.4 109.9 267.4 109.9C280.2 66.0998 317.6 33.4998 363.1 25.2998C375.9 22.9998 389.9 21.7998 405.1 21.7998C445.3 22.3998 485.5 32.2998 524 51.4998Z" fill="#D82122"/>
<path d="M202.6 163.5C134.4 161.2 157.1 81.8002 158.3 77.2002C158.3 77.8002 162.9 139.6 202.6 163.5Z" fill="#D82122"/>
<path d="M269.7 20.6001C217.2 52.1001 227.7 127.3 227.7 127.3C177.5 51.0001 265.6 22.4001 269.7 20.6001Z" fill="#D82122"/>
<path d="M183.4 184.5C186.9 187.4 190.4 192.7 186.3 200.3C184 204.4 180.5 203.8 175.2 201.5C168.2 198 126.2 173.5 88.3 148.4C131.5 163.6 175.2 179.9 182.2 183.4C182.2 183.4 182.8 184 183.4 184.5Z" fill="white"/>
</g>
<defs>
<clipPath id="clip0_1_3">
<rect width="706.8" height="665.2" fill="white"/>
</clipPath>
</defs>
</svg>
